modules/feathericon/icons/link-external.svg

<?xml version="1.0" encoding="UTF-8"?>
<svg width="10px" height="10px" viewBox="0 0 10 10" version="1.1" xmlns="http://www.w3.org/2000/svg" xmlns:xlink="http://www.w3.org/1999/xlink">
    <!-- Generator: sketchtool 48.1 (47250) - http://www.bohemiancoding.com/sketch -->
    <title>link-external</title>
    <desc>Created with sketchtool.</desc>
    <defs></defs>
    <g id="web-app" stroke="none" stroke-width="1" fill="none" fill-rule="evenodd">
        <g id="link-external" fill="#000000">
            <path d="M3.05311332e-16,8.99999999 L0,2.99999999 C0,1.99999999 1,1.99999999 1,1.99999999 L4,1.99999999 L4,3 L1,3 L1,9 L7,9 L7,6 L8,6.00001811 L8,9 C8,9.99999999 7,9.99999999 7,9.99999999 L1,9.99999999 C1,9.99999999 3.05311332e-16,9.99999999 3.05311332e-16,8.99999999 Z M9.00000001,2 L5.00000001,6 L4.00000001,5 L8.00000001,1 L5,1 L5,0 L10,4.9106319e-09 L10,5 L9.00000001,5 L9.00000001,2 Z" id="Shape"></path>
        </g>
    </g>
</svg>

<svg width="10" height="10" xmlns="http://www.w3.org/2000/svg"><path d="M0 9V3c0-1 1-1 1-1h3v1H1v6h6V6h1v3c0 1-1 1-1 1H1s-1 0-1-1zm9-7L5 6 4 5l4-4H5V0h5v5H9V2z" fill="#000" fill-rule="evenodd"/></svg>
